src/assets/noData.svg

<svg width="242" height="293" viewBox="0 0 242 293" fill="none" xmlns="http://www.w3.org/2000/svg">
<g clip-path="url(#clip0)">
<path d="M177.938 273.687H64.0614C64.0614 264.703 71.3453 257.419 80.3296 257.419H161.67C170.654 257.419 177.938 264.703 177.938 273.687Z" fill="url(#paint0_linear)"/>
<path d="M161.67 257.419H129.134C138.118 257.419 145.402 264.703 145.402 273.687H177.938C177.938 264.703 170.654 257.419 161.67 257.419Z" fill="url(#paint1_linear)"/>
<path d="M145.402 257.419H96.5978L112.866 241.151H129.134L145.402 257.419Z" fill="url(#paint2_linear)"/>
<path d="M194.206 115.746C193.401 115.746 192.616 115.51 191.949 115.063C184.673 110.198 176.116 107.608 167.364 107.612H74.656C65.8954 107.604 57.3345 110.194 50.0502 115.063C48.8343 115.864 47.2885 115.961 45.9834 115.319L29.7152 107.185L33.351 99.9045L47.5856 107.014C55.7521 102.08 65.1143 99.4731 74.656 99.4773H167.364C176.917 99.4693 186.288 102.076 194.463 107.014L208.677 99.9045L212.313 107.185L196.045 115.319C195.475 115.604 194.845 115.75 194.206 115.746Z" fill="#FFD9C6"/>
<path d="M128.753 87.1959H112.404V241.151H128.753V87.1959Z" fill="#FFD9C6"/>
<path d="M129.134 87.2763H112.866L108.677 70.5241C106.973 63.7201 111.109 56.822 117.917 55.1183C118.926 54.8659 119.963 54.74 121 54.74C128.015 54.74 133.701 60.4259 133.701 67.4414C133.701 68.4824 133.575 69.5155 133.323 70.5241L129.134 87.2763Z" fill="url(#paint3_linear)"/>
<path d="M121 54.7404C119.703 54.7606 118.418 54.9805 117.185 55.3913C123.579 57.3925 127.308 64.0254 125.694 70.5249L121.509 87.2772H129.134L133.323 70.5249C135.027 63.7209 130.891 56.8229 124.083 55.1192C123.078 54.8705 122.042 54.7404 121 54.7404Z" fill="#FA982F"/>
<path d="M87.138 199.152L47.7934 113.306L8.44882 199.152C7.51354 201.194 5.0978 202.089 3.05571 201.154C1.01408 200.218 0.119218 197.803 1.05449 195.761L44.096 101.849C45.0313 99.8077 47.447 98.9129 49.4891 99.8486C50.3755 100.255 51.0833 100.963 51.4903 101.849L94.5319 195.761C95.4672 197.803 94.5728 200.218 92.5307 201.154C90.489 202.093 88.0771 201.194 87.138 199.152Z" fill="url(#paint4_linear)"/>
<path d="M233.551 199.152L194.207 113.306L154.862 199.152C153.927 201.194 151.511 202.089 149.469 201.154C147.427 200.218 146.533 197.803 147.468 195.761L190.509 101.849C191.445 99.8077 193.86 98.9129 195.902 99.8486C196.788 100.255 197.496 100.963 197.903 101.849L240.945 195.761C241.88 197.803 240.986 200.218 238.944 201.154C236.902 202.093 234.49 201.194 233.551 199.152Z" fill="url(#paint5_linear)"/>
<path d="M149.47 201.154H238.944C238.944 214.632 228.02 225.556 214.542 225.556H173.871C160.398 225.555 149.47 214.631 149.47 201.154Z" fill="url(#paint6_linear)"/>
<path d="M214.541 201.154C214.541 214.632 203.617 225.556 190.139 225.556H214.541C228.02 225.556 238.944 214.632 238.944 201.154H214.541Z" fill="url(#paint7_linear)"/>
<path d="M3.05652 201.154H92.531C92.531 214.632 81.607 225.556 68.1287 225.556H27.4583C13.9847 225.555 3.05652 214.631 3.05652 201.154Z" fill="url(#paint8_linear)"/>
<path d="M68.1283 201.154C68.1283 214.632 57.2044 225.556 43.7261 225.556H68.1283C81.6066 225.556 92.5306 214.632 92.5306 201.154H68.1283Z" fill="url(#paint9_linear)"/>
</g>
<path fill-rule="evenodd" clip-rule="evenodd" d="M171.436 181.008L175.124 189.877L200.852 179.137C201.865 178.717 202.343 177.548 201.922 176.532C201.625 175.822 200.943 175.341 200.173 175.31L186.498 174.722L177.014 178.679L171.436 181.008Z" fill="#242424"/>
<path fill-rule="evenodd" clip-rule="evenodd" d="M122.24 191.909H150.112C151.209 191.909 152.098 191.023 152.098 189.923C152.098 189.143 151.652 188.441 150.954 188.112L138.556 182.299H122.24V191.909Z" fill="#242424"/>
<path fill-rule="evenodd" clip-rule="evenodd" d="M167.179 97.8383C165.737 92.0958 160.584 88.0703 154.674 88.0703H103.082L98.5434 97.8055C96.9673 101.185 99.429 105.061 103.152 105.061H122.241V182.299H138.557L142.364 105.061H150.101L171.436 181.008L177.014 178.679L186.497 174.722L167.179 97.8383Z" fill="#6893C0"/>
<path d="M154.674 88.0703C160.584 88.0703 165.737 92.0958 167.179 97.8383L184.272 151.157H170.921H146.125H117.038L118.469 105.061H103.152C99.429 105.061 96.9673 101.185 98.5434 97.8055L103.082 88.0703H154.674Z" fill="#242424"/>
<path fill-rule="evenodd" clip-rule="evenodd" d="M44.2827 101.012V105.062H59.1917L61.4674 101.012L51.7151 96.5657L44.2827 101.012Z" fill="#F5C5B6"/>
<path fill-rule="evenodd" clip-rule="evenodd" d="M206.846 101.012V105.062H191.937L189.661 101.012L199.414 96.5658L206.846 101.012Z" fill="#F5C5B6"/>
<path d="M99.6456 31.9257H132.66V88.0703H103.082L94.4288 54.8577L61.4685 101.012L51.7162 96.5658L82.9144 41.6723C86.3387 35.6463 92.7262 31.9257 99.6456 31.9257Z" fill="#242424"/>
<path d="M151.483 31.9257H118.469V88.0703H148.047L156.7 54.8577L189.66 101.012L199.413 96.5658L168.214 41.6723C164.79 35.6463 158.403 31.9257 151.483 31.9257Z" fill="#242424"/>
<path d="M124.444 62.4655L111.793 31.4712H135.635L124.444 62.4655Z" fill="white"/>
<path fill-rule="evenodd" clip-rule="evenodd" d="M122.107 2.64719C120.522 -0.0463979 112.52 -1.63059 109.431 2.64719C105.802 7.67174 110.115 11.9954 110.115 11.9954V8.13465H118.81L122.583 11.3835V15.957H123.972C123.972 14.0533 125.515 12.5104 127.418 12.5104C127.715 12.5104 127.997 12.5592 128.272 12.63C128.592 12.7122 128.891 12.8385 129.168 13.0028C129.745 10.5138 130.1 7.02526 128.358 4.8654C126.222 2.21714 122.107 2.64719 122.107 2.64719Z" fill="#242424"/>
<path fill-rule="evenodd" clip-rule="evenodd" d="M129.168 13.0028C128.891 12.8385 128.592 12.7122 128.272 12.63C127.998 12.5592 127.715 12.5104 127.418 12.5104C125.515 12.5104 123.972 14.0533 123.972 15.957H122.583V11.3835L118.81 8.13464H110.115V22.1884C110.115 24.4066 112.179 26.0481 114.34 25.5489L118.424 24.4797V33.2619L123.348 38.1414L128.272 33.2619V19.2835C129.76 18.9022 130.865 17.5639 130.865 15.957C130.865 14.6952 130.179 13.6034 129.168 13.0028Z" fill="#F5C5B6"/>
<path fill-rule="evenodd" clip-rule="evenodd" d="M119.2 18.1037C119.215 18.5006 119.132 18.8979 118.947 19.2638C118.663 19.8279 118.181 20.2457 117.575 20.4499C116.55 20.7907 115.454 20.3913 114.872 19.5433L119.2 18.1037ZM118.765 21.3225C119.338 20.9687 119.803 20.4633 120.113 19.8459C120.554 18.9696 120.627 17.9741 120.319 17.0441L120.113 16.4262L113.136 18.7471L113.341 19.3663C113.978 21.2865 116.062 22.3273 117.984 21.6868C118.262 21.595 118.523 21.4718 118.765 21.3225Z" fill="#242424"/>
<defs>
<linearGradient id="paint0_linear" x1="240.214" y1="250.098" x2="230.449" y2="301.878" gradientUnits="userSpaceOnUse">
<stop stop-color="#FFB36D"/>
<stop offset="1" stop-color="#FF8888"/>
</linearGradient>
<linearGradient id="paint1_linear" x1="175.821" y1="257.594" x2="146.469" y2="325.204" gradientUnits="userSpaceOnUse">
<stop stop-color="#FFB36D"/>
<stop offset="1" stop-color="#FF8888"/>
</linearGradient>
<linearGradient id="paint2_linear" x1="172.092" y1="233.83" x2="152.324" y2="278.753" gradientUnits="userSpaceOnUse">
<stop stop-color="#FFB36D"/>
<stop offset="1" stop-color="#FF8888"/>
</linearGradient>
<linearGradient id="paint3_linear" x1="132.599" y1="55.0905" x2="61.7225" y2="97.5868" gradientUnits="userSpaceOnUse">
<stop stop-color="#FFB36D"/>
<stop offset="1" stop-color="#FF8888"/>
</linearGradient>
<linearGradient id="paint4_linear" x1="90.8151" y1="100.577" x2="-146.994" y2="269.157" gradientUnits="userSpaceOnUse">
<stop stop-color="#FFE6CF"/>
<stop offset="1" stop-color="#FF8888"/>
</linearGradient>
<linearGradient id="paint5_linear" x1="237.228" y1="100.577" x2="-0.580499" y2="269.156" gradientUnits="userSpaceOnUse">
<stop stop-color="#FFE6CF"/>
<stop offset="1" stop-color="#FF8888"/>
</linearGradient>
<linearGradient id="paint6_linear" x1="287.875" y1="190.173" x2="262.24" y2="261.375" gradientUnits="userSpaceOnUse">
<stop stop-color="#FFB36D"/>
<stop offset="1" stop-color="#FF8888"/>
</linearGradient>
<linearGradient id="paint7_linear" x1="236.826" y1="201.416" x2="181.71" y2="286.053" gradientUnits="userSpaceOnUse">
<stop stop-color="#FFB36D"/>
<stop offset="1" stop-color="#FF8888"/>
</linearGradient>
<linearGradient id="paint8_linear" x1="141.462" y1="190.173" x2="115.827" y2="261.375" gradientUnits="userSpaceOnUse">
<stop stop-color="#FFB36D"/>
<stop offset="1" stop-color="#FF8888"/>
</linearGradient>
<linearGradient id="paint9_linear" x1="90.4132" y1="201.416" x2="35.2966" y2="286.053" gradientUnits="userSpaceOnUse">
<stop stop-color="#FFB36D"/>
<stop offset="1" stop-color="#FF8888"/>
</linearGradient>
<clipPath id="clip0">
<rect x="0.68457" y="52.3684" width="240.632" height="240.632" fill="white"/>
</clipPath>
</defs>
</svg>

<svg width="242" height="293" viewBox="0 0 242 293" fill="none" xmlns="http://www.w3.org/2000/svg"><g clip-path="url(#clip0)"><path d="M177.938 273.687H64.061c0-8.984 7.284-16.268 16.269-16.268h81.34c8.984 0 16.268 7.284 16.268 16.268z" fill="url(#paint0_linear)"/><path d="M161.67 257.419h-32.536c8.984 0 16.268 7.284 16.268 16.268h32.536c0-8.984-7.284-16.268-16.268-16.268z" fill="url(#paint1_linear)"/><path d="M145.402 257.419H96.598l16.268-16.268h16.268l16.268 16.268z" fill="url(#paint2_linear)"/><path d="M194.206 115.746a4.05 4.05 0 01-2.257-.683 44.19 44.19 0 00-24.585-7.451H74.656a44.193 44.193 0 00-24.606 7.451 4.1 4.1 0 01-4.067.256l-16.268-8.134 3.636-7.28 14.235 7.109a52.307 52.307 0 0127.07-7.537h92.708a52.326 52.326 0 0127.099 7.537l14.214-7.11 3.636 7.281-16.268 8.134c-.57.285-1.2.431-1.839.427z" fill="#FFD9C6"/><path d="M128.753 87.196h-16.349V241.15h16.349V87.196z" fill="#FFD9C6"/><path d="M129.134 87.276h-16.268l-4.189-16.752c-1.704-6.804 2.432-13.702 9.24-15.406A12.712 12.712 0 01121 54.74c7.015 0 12.701 5.686 12.701 12.701 0 1.041-.126 2.075-.378 3.083l-4.189 16.752z" fill="url(#paint3_linear)"/><path d="M121 54.74c-1.297.02-2.582.24-3.815.651 6.394 2.002 10.123 8.634 8.509 15.134l-4.185 16.752h7.625l4.189-16.752c1.704-6.804-2.432-13.702-9.24-15.406A12.842 12.842 0 00121 54.74z" fill="#FA982F"/><path d="M87.138 199.152l-39.345-85.846L8.45 199.152a4.069 4.069 0 01-7.394-3.391l43.041-93.912a4.068 4.068 0 017.394 0l43.042 93.912a4.068 4.068 0 01-7.394 3.391z" fill="url(#paint4_linear)"/><path d="M233.551 199.152l-39.344-85.846-39.345 85.846a4.068 4.068 0 01-7.394-3.391l43.041-93.912a4.068 4.068 0 017.394 0l43.042 93.912a4.068 4.068 0 01-7.394 3.391z" fill="url(#paint5_linear)"/><path d="M149.47 201.154h89.474c0 13.478-10.924 24.402-24.402 24.402h-40.671c-13.473-.001-24.401-10.925-24.401-24.402z" fill="url(#paint6_linear)"/><path d="M214.541 201.154c0 13.478-10.924 24.402-24.402 24.402h24.402c13.479 0 24.403-10.924 24.403-24.402h-24.403z" fill="url(#paint7_linear)"/><path d="M3.057 201.154H92.53c0 13.478-10.924 24.402-24.402 24.402h-40.67c-13.474-.001-24.402-10.925-24.402-24.402z" fill="url(#paint8_linear)"/><path d="M68.128 201.154c0 13.478-10.924 24.402-24.402 24.402h24.402c13.479 0 24.403-10.924 24.403-24.402H68.128z" fill="url(#paint9_linear)"/></g><path fill-rule="evenodd" clip-rule="evenodd" d="M171.436 181.008l3.688 8.869 25.728-10.74a1.994 1.994 0 001.07-2.605 1.989 1.989 0 00-1.749-1.222l-13.675-.588-9.484 3.957-5.578 2.329zM122.24 191.909h27.872a1.984 1.984 0 001.986-1.986c0-.78-.446-1.482-1.144-1.811l-12.398-5.813H122.24v9.61z" fill="#242424"/><path fill-rule="evenodd" clip-rule="evenodd" d="M167.179 97.838a12.9 12.9 0 00-12.505-9.768h-51.592l-4.539 9.736c-1.576 3.379.886 7.255 4.609 7.255h19.089v77.238h16.316l3.807-77.238h7.737l21.335 75.947 5.578-2.329 9.483-3.957-19.318-76.884z" fill="#6893C0"/><path d="M154.674 88.07a12.9 12.9 0 0112.505 9.768l17.093 53.319h-67.234l1.431-46.096h-15.317c-3.723 0-6.185-3.876-4.609-7.256l4.539-9.735h51.592z" fill="#242424"/><path fill-rule="evenodd" clip-rule="evenodd" d="M44.283 101.012v4.05h14.909l2.275-4.05-9.752-4.446-7.432 4.446zM206.846 101.012v4.05h-14.909l-2.276-4.05 9.753-4.446 7.432 4.446z" fill="#F5C5B6"/><path d="M99.646 31.926h33.014V88.07h-29.578l-8.653-33.212-32.96 46.154-9.753-4.446 31.198-54.894a19.247 19.247 0 0116.732-9.746z" fill="#242424"/><path d="M151.483 31.926h-33.014V88.07h29.578l8.653-33.212 32.96 46.154 9.753-4.446-31.199-54.894a19.245 19.245 0 00-16.731-9.746z" fill="#242424"/><path d="M124.444 62.465l-12.651-30.994h23.842l-11.191 30.994z" fill="#fff"/><path fill-rule="evenodd" clip-rule="evenodd" d="M122.107 2.647c-1.585-2.693-9.587-4.278-12.676 0-3.629 5.025.684 9.348.684 9.348v-3.86h8.695l3.773 3.248v4.574h1.389a3.446 3.446 0 013.446-3.447c.297 0 .579.05.854.12.32.082.619.208.896.373.577-2.49.932-5.978-.81-8.138-2.136-2.648-6.251-2.218-6.251-2.218z" fill="#242424"/><path fill-rule="evenodd" clip-rule="evenodd" d="M129.168 13.003a3.418 3.418 0 00-.896-.373 3.395 3.395 0 00-.854-.12 3.446 3.446 0 00-3.446 3.447h-1.389v-4.574l-3.773-3.248h-8.695v14.053a3.449 3.449 0 004.225 3.36l4.084-1.068v8.782l4.924 4.88 4.924-4.88V19.283a3.438 3.438 0 002.593-3.326 3.434 3.434 0 00-1.697-2.954z" fill="#F5C5B6"/><path fill-rule="evenodd" clip-rule="evenodd" d="M119.2 18.104c.015.397-.068.794-.253 1.16a2.374 2.374 0 01-4.075.28l4.328-1.44zm-.435 3.219a3.652 3.652 0 001.348-1.477 3.644 3.644 0 00.206-2.802l-.206-.618-6.977 2.321.205.62a3.672 3.672 0 005.424 1.956z" fill="#242424"/><defs><linearGradient id="paint5_linear" x1="237.228" y1="100.577" x2="-.58" y2="269.156" gradientUnits="userSpaceOnUse"><stop stop-color="#FFE6CF"/><stop offset="1" stop-color="#F88"/></linearGradient><linearGradient id="paint0_linear" x1="240.214" y1="250.098" x2="230.449" y2="301.878" gradientUnits="userSpaceOnUse"><stop stop-color="#FFB36D"/><stop offset="1" stop-color="#F88"/></linearGradient><linearGradient id="paint2_linear" x1="172.092" y1="233.83" x2="152.324" y2="278.753" gradientUnits="userSpaceOnUse"><stop stop-color="#FFB36D"/><stop offset="1" stop-color="#F88"/></linearGradient><linearGradient id="paint3_linear" x1="132.599" y1="55.09" x2="61.722" y2="97.587" gradientUnits="userSpaceOnUse"><stop stop-color="#FFB36D"/><stop offset="1" stop-color="#F88"/></linearGradient><linearGradient id="paint4_linear" x1="90.815" y1="100.577" x2="-146.994" y2="269.157" gradientUnits="userSpaceOnUse"><stop stop-color="#FFE6CF"/><stop offset="1" stop-color="#F88"/></linearGradient><linearGradient id="paint1_linear" x1="175.821" y1="257.594" x2="146.469" y2="325.204" gradientUnits="userSpaceOnUse"><stop stop-color="#FFB36D"/><stop offset="1" stop-color="#F88"/></linearGradient><linearGradient id="paint6_linear" x1="287.875" y1="190.173" x2="262.24" y2="261.375" gradientUnits="userSpaceOnUse"><stop stop-color="#FFB36D"/><stop offset="1" stop-color="#F88"/></linearGradient><linearGradient id="paint7_linear" x1="236.826" y1="201.416" x2="181.71" y2="286.053" gradientUnits="userSpaceOnUse"><stop stop-color="#FFB36D"/><stop offset="1" stop-color="#F88"/></linearGradient><linearGradient id="paint8_linear" x1="141.462" y1="190.173" x2="115.827" y2="261.375" gradientUnits="userSpaceOnUse"><stop stop-color="#FFB36D"/><stop offset="1" stop-color="#F88"/></linearGradient><linearGradient id="paint9_linear" x1="90.413" y1="201.416" x2="35.297" y2="286.053" gradientUnits="userSpaceOnUse"><stop stop-color="#FFB36D"/><stop offset="1" stop-color="#F88"/></linearGradient><clipPath id="clip0"><path fill="#fff" d="M.685 52.368h240.632V293H.685z"/></clipPath></defs></svg>
